X:135
T: Malbrough (2-17), S. 39
N: K1109V
O: Luxemburg
S: KINTZELE, Guillaume: An der Ucht, Bd. 2, Luxemburg 1927]
N: in der Quelle mit einer 2. Stimme versehen, franzsische Variante von K1108
R: historisches, Kriegs-, Soldatenlied]
M: 2/4
L: 1/16
K: G
B2 | B2B2B2A2B2 | c4B2BB | A2AAA2GA | B2G2B2
B2 | B2B2B2A2B2 | c4B2d2 | B2G2A2A2 | G4z2
B2 | d2d2e2e2 | d4z2B2 | d2d2e2e2 | d4z2

